X: 1838
T: Rita Croker's "Rocking Horse" Schottische
B: australian traditional tunes wiki
M:4/4
L:1/8
R: Schottische
Q: 1/4=100
K:G
V:1 
G>A|"G"B2B2 B>A (3GAB|"Am"c2c>d c>B A>G|"D"f2f2 f>e (3def|"G"(3gdg b>a g>f e>d|
"G"B2B>d B>A (3GAB|"Am"c2c>B c>B A>G|"D"f2f2 f>e (3def|"G"(3gdg b>ag2z2|
"G"(3GBd g>a b<g dg/B/|B>A (3GAB "Am"c2 c>A|"D7"(3FAc f>e (3dgd (3cBA|"G"G>D G>B"D7"d3d|
"G"(3GBd g>a b<g d>D|B>A (3GAB "Am/C"c2c>A|"D7"(3FAc f>e (3dgd "Am"(3cBA|"G"G2"C"g2"G"g2z2||
% abcbook-tune_id 6342d53aa3a16af14bc82781


% abcbook-boost 0
% abcbook-tablature 
% abcbook-transpose 
% abcbook-lastupdated 1665324387047
% abcbook-soundfonts 
% abcbook-repeats 1
% NFF Book 2018

